64x64/apps/magnatune.svg

<svg xmlns="http://www.w3.org/2000/svg" width="64" height="64" version="1">
 <path style="opacity:0.2" d="m 4.0507997,32.000415 c -0.0118,0.333995 -0.050799,0.66199 -0.050799,0.999985 C 4.0000004,48.512179 16.487822,61 31.9996,61 47.511378,61 59.9992,48.512179 59.9992,33.0004 c 0,-0.337675 -0.03904,-0.66527 -0.05078,-0.999985 C 59.420428,47.0422 47.172603,59.000029 31.99882,59.000029 16.824637,59.000029 4.5772122,47.0422 4.0492197,32.000415 Z"/>
 <rect style="fill:#246e9a" width="56" height="56" x="4" y="4" rx="28" ry="28"/>
 <path style="opacity:0.2" d="M 31.9996,13.000686 A 19.999714,19.999714 0 0 0 11.999886,33.0004 19.999714,19.999714 0 0 0 31.9996,53.000114 19.999714,19.999714 0 0 0 51.999314,33.0004 19.999714,19.999714 0 0 0 31.9996,13.000686 Z m 0,5.999915 c 2.215968,0 3.999943,1.607137 3.999943,3.601548 l 0,16.79656 c 0,1.993971 -1.783975,3.601948 -3.999943,3.601948 -2.215968,0 -3.999943,-1.607977 -3.999943,-3.601948 l 0,-16.79656 c 0,-1.993971 1.783975,-3.601948 3.999943,-3.601948 z m -11.999828,7.999885 c 2.215968,0 3.999942,1.783975 3.999942,3.999943 l 0,7.999886 c 0,2.215968 -1.783974,3.999942 -3.999942,3.999942 -2.215969,0 -3.999943,-1.783974 -3.999943,-3.999942 l 0,-7.999886 c 0,-2.215968 1.783974,-3.999943 3.999943,-3.999943 z m 23.999656,0 c 2.215969,0 3.999943,1.783975 3.999943,3.999943 l 0,7.999886 c 0,2.215968 -1.783974,3.999942 -3.999943,3.999942 -2.215968,0 -3.999942,-1.783974 -3.999942,-3.999942 l 0,-7.999886 c 0,-2.215968 1.783974,-3.999943 3.999942,-3.999943 z"/>
 <path style="fill:#f4f4f7" d="M 31.9996,12.000715 A 19.999714,19.999714 0 0 0 11.999886,32.000429 19.999714,19.999714 0 0 0 31.9996,52.000143 19.999714,19.999714 0 0 0 51.999314,32.000429 19.999714,19.999714 0 0 0 31.9996,12.000715 Z m 0,5.999914 c 2.215968,0 3.999943,1.607177 3.999943,3.601949 l 0,16.79576 c 0,1.993971 -1.783975,3.601948 -3.999943,3.601948 -2.215968,0 -3.999943,-1.607977 -3.999943,-3.601948 l 0,-16.79576 c 0,-1.994772 1.783975,-3.601949 3.999943,-3.601949 z m -11.999828,7.999886 c 2.215968,0 3.999942,1.783974 3.999942,3.999943 l 0,7.999885 c 0,2.215969 -1.783974,3.999943 -3.999942,3.999943 -2.215969,0 -3.999943,-1.783974 -3.999943,-3.999943 l 0,-7.999885 c 0,-2.215969 1.783974,-3.999943 3.999943,-3.999943 z m 23.999656,0 c 2.215969,0 3.999943,1.783974 3.999943,3.999943 l 0,7.999885 c 0,2.215969 -1.783974,3.999943 -3.999943,3.999943 -2.215968,0 -3.999942,-1.783974 -3.999942,-3.999943 l 0,-7.999885 c 0,-2.215969 1.783974,-3.999943 3.999942,-3.999943 z"/>
 <path style="opacity:0.2;fill:#f4f4f7" d="M 32 4 C 16.488222 4 4 16.488222 4 32 C 4 32.113554 4.0112846 32.224034 4.0175781 32.335938 C 4.3691163 17.134398 16.710946 5 32 5 C 47.289054 5 59.630884 17.134398 59.982422 32.335938 C 59.988797 32.224034 60 32.113554 60 32 C 60 16.488222 47.511778 4 32 4 z"/>
</svg>

<svg xmlns="http://www.w3.org/2000/svg" width="64" height="64" version="1"><path style="opacity:.2" d="M4.05 32c-.011.334-.05.662-.05 1 0 15.512 12.488 28 28 28 15.511 0 28-12.488 28-28 0-.337-.04-.665-.052-1-.528 15.042-12.775 27-27.95 27C16.826 59 4.579 47.042 4.05 32z"/><rect style="fill:#246e9a" width="56" height="56" x="4" y="4" rx="28" ry="28"/><path style="opacity:.2" d="M32 13a20 20 0 0 0-20 20 20 20 0 0 0 20 20 20 20 0 0 0 20-20 20 20 0 0 0-20-20zm0 6c2.216 0 4 1.608 4 3.602V39.4C36 41.393 34.216 43 32 43s-4-1.608-4-3.602V22.602C28 20.608 29.784 19 32 19zm-12 8c2.216 0 4 1.784 4 4v8c0 2.216-1.784 4-4 4s-4-1.784-4-4v-8c0-2.216 1.784-4 4-4zm24 0c2.215 0 4 1.784 4 4v8c0 2.216-1.785 4-4 4-2.217 0-4-1.784-4-4v-8c0-2.216 1.783-4 4-4z"/><path style="fill:#f4f4f7" d="M32 12a20 20 0 0 0-20 20 20 20 0 0 0 20 20 20 20 0 0 0 20-20 20 20 0 0 0-20-20zm0 6c2.216 0 4 1.608 4 3.603v16.795C36 40.392 34.216 42 32 42s-4-1.608-4-3.602V21.603C28 19.608 29.784 18 32 18zm-12 8c2.216 0 4 1.784 4 4v8c0 2.216-1.784 4-4 4s-4-1.784-4-4v-8c0-2.216 1.784-4 4-4zm24 0c2.215 0 4 1.784 4 4v8c0 2.216-1.785 4-4 4-2.217 0-4-1.784-4-4v-8c0-2.216 1.783-4 4-4z"/><path style="opacity:.2;fill:#f4f4f7" d="M32 4C16.488 4 4 16.488 4 32c0 .114.011.224.018.336C4.369 17.134 16.71 5 32 5c15.29 0 27.63 12.134 27.982 27.336.007-.112.018-.222.018-.336C60 16.488 47.512 4 32 4z"/></svg>
